images/blog/pocket.svg

<svg height="44" viewBox="0 0 44 44" width="44" xmlns="http://www.w3.org/2000/svg"><g fill="none" fill-rule="evenodd"><path d="m2 0h40c1.1045695 0 2 .8954305 2 2v40c0 1.1045695-.8954305 2-2 2h-40c-1.1045695 0-2-.8954305-2-2v-40c0-1.1045695.8954305-2 2-2z" fill="#ef4056"/><path d="m1.92441362 0c-1.19868471.07888831-1.92441362.76993393-1.92441362 1.99903571v7.36079774c0 5.97860675 5.88809732 10.67704875 10.9816309 10.63994835 5.727318-.041738 11.0183691-4.9257321 11.0183691-10.63994835v-7.36079774c0-1.23373934-.7716024-1.92947238-1.979521-1.99903571zm4.63884811 5.98788188 4.41836917 4.23927412 4.4229614-4.23927412c1.979521-.83949726 2.842969 1.4424792 2.0300361 2.11038691l-5.759464 5.55185191c-.1882836.1809146-1.1941418.1809146-1.3824254 0l-5.7595134-5.55190178c-.77624403-.73747104.23420645-3.05654794 2.03003613-2.11033704z" fill="#fff" fill-rule="nonzero" transform="translate(11 12)"/></g></svg>

<?xml version="1.0" encoding="UTF-8"?>
<svg width="44px" height="44px" viewBox="0 0 44 44" version="1.1" xmlns="http://www.w3.org/2000/svg" xmlns:xlink="http://www.w3.org/1999/xlink">
    <!-- Generator: Sketch 49.3 (51167) - http://www.bohemiancoding.com/sketch -->
    <title>pocket</title>
    <desc>Created with Sketch.</desc>
    <defs></defs>
    <g id="✒️-blog" stroke="none" stroke-width="1" fill="none" fill-rule="evenodd">
        <g id="article" transform="translate(-832.000000, -3472.000000)">
            <g id="newsletter" transform="translate(448.000000, 3420.000000)">
                <g id="info" transform="translate(24.000000, 20.000000)">
                    <g id="pocket" transform="translate(360.000000, 32.000000)">
                        <path d="M2,0 L42,0 C43.1045695,-2.02906125e-16 44,0.8954305 44,2 L44,42 C44,43.1045695 43.1045695,44 42,44 L2,44 C0.8954305,44 1.3527075e-16,43.1045695 0,42 L0,2 C-1.3527075e-16,0.8954305 0.8954305,2.02906125e-16 2,0 Z" id="input-bg" fill="#EF4056"></path>
                        <g transform="translate(11.000000, 12.000000)" fill="#FFFFFF" fill-rule="nonzero" id="Shape">
                            <path d="M1.92441362,2.83456456e-15 C0.725728907,0.078888308 0,0.769933929 0,1.99903571 L0,9.35983345 C0,15.3384402 5.88809732,20.0368822 10.9816309,19.9997818 C16.7089489,19.9580438 22,15.0740497 22,9.35983345 L22,1.99903571 C22,0.765296373 21.2283976,0.069563331 20.020479,0 L1.92441362,2.83456456e-15 Z M6.56326173,5.98788188 L10.9816309,10.227156 L15.4045923,5.98788188 C17.3841133,5.14838462 18.2475613,7.43036108 17.4346284,8.09826879 L11.6751644,13.6501207 C11.4868808,13.8310353 10.4810226,13.8310353 10.292739,13.6501207 L4.5332256,8.09821892 C3.75698157,7.36074788 4.76743205,5.04167098 6.56326173,5.98788188 Z"></path>
                        </g>
                    </g>
                </g>
            </g>
        </g>
    </g>
</svg>
